X: 40165
T: Tim Sullivan's
R: barndance
M: 4/4
K: Amajor
|:.e2A2 ~c2A2|cecA cecA|~B2ce ~f2fe|~B2ce ~f2af|
.e2A2 ~c2A2|cecA cecA|~B2ce efec|1 ~B2A2 A3f:|2 ~B2A2 A3e||
|:.e2a2 g2f2|efec B2BA|~B2ce ~f2fe|~B2ce ~f2af|
.e2a2 g2f2|efec B2BA|~B2ce efec|1 ~B2A2 A3e:|2 ~B2A2 A3f||

